app/img/molecule.svg

<svg width="92" height="92" viewBox="0 0 92 92" fill="none" xmlns="http://www.w3.org/2000/svg">
<rect width="92" height="92" rx="24" fill="white"/>
<g clip-path="url(#clip0_22728_12626)">
<path d="M74.5262 51.7273C73.8387 51.4426 73.115 51.2982 72.3751 51.2982C70.7434 51.2982 69.2361 51.9946 68.1895 53.1615L66.9695 52.6562L63.4894 51.2147C63.9833 49.5616 64.2498 47.8113 64.2498 45.9998C64.2498 44.1883 63.9831 42.4381 63.4894 40.7849L66.9695 39.3435L68.1895 38.8381C69.2361 40.0051 70.7434 40.7014 72.3751 40.7014C73.115 40.7014 73.8387 40.5571 74.5262 40.2722C77.3916 39.0852 78.7574 35.7883 77.5704 32.9227C76.6964 30.8128 74.6559 29.4493 72.3721 29.4493C71.6322 29.4493 70.9085 29.5937 70.221 29.8786C67.9627 30.814 66.6372 33.0598 66.7572 35.3722L65.5301 35.8805L62.0511 37.3215C60.361 34.208 57.7915 31.6383 54.678 29.9483L56.119 26.4694L56.6268 25.2436C56.7251 25.2487 56.8238 25.2517 56.9228 25.2517C59.2066 25.2517 61.247 23.8884 62.1211 21.7784C63.308 18.9129 61.9424 15.6159 59.0769 14.4289C58.3893 14.1444 57.6656 14 56.9258 14C54.6419 14 52.6015 15.3634 51.7274 17.4734C50.792 19.7316 51.4428 22.257 53.1628 23.8072L52.6563 25.0301L51.2148 28.5102C49.5617 28.0165 47.8114 27.7498 45.9999 27.7498C44.1884 27.7498 42.4382 28.0165 40.785 28.5102L39.3435 25.0301L38.8371 23.8072C40.557 22.257 41.2078 19.7316 40.2724 17.4732C39.3983 15.3634 37.3577 14 35.0739 14C34.3341 14 33.6103 14.1444 32.9228 14.4292C30.0574 15.6162 28.6917 18.9131 29.8787 21.7787C30.7527 23.8886 32.7932 25.2521 35.0769 25.2521C35.1759 25.2521 35.2746 25.2491 35.3729 25.244L35.8807 26.4697L37.3217 29.9487C34.2082 31.6388 31.6386 34.2083 29.9486 37.3218L26.4696 35.8808L25.2425 35.3726C25.3625 33.0602 24.037 30.8143 21.7787 29.8788C21.0912 29.5941 20.3675 29.4497 19.6276 29.4497C17.3437 29.4497 15.3033 30.8131 14.4292 32.9231C13.2423 35.7886 14.608 39.0856 17.4735 40.2726C18.161 40.5573 18.8847 40.7017 19.6246 40.7017C21.2563 40.7017 22.7636 40.0053 23.8102 38.8383L25.0302 39.3437L28.5103 40.7852C28.0164 42.4383 27.7499 44.1886 27.7499 46.0001C27.7499 47.8116 28.0166 49.5618 28.5103 51.2149L25.0301 52.6562L23.8101 53.1615C22.7635 51.9946 21.2562 51.2982 19.6245 51.2982C18.8846 51.2982 18.1608 51.4426 17.4733 51.7274C14.608 52.9144 13.2422 56.2113 14.4292 59.0769C15.3032 61.1868 17.3437 62.5503 19.6275 62.5503C20.3673 62.5503 21.0911 62.4059 21.7786 62.121C24.0368 61.1857 25.3623 58.9398 25.2423 56.6274L26.4694 56.1192L29.9484 54.6782C31.6386 57.7917 34.2081 60.3613 37.3216 62.0513L35.8806 65.5303L35.3728 66.756C35.2744 66.7509 35.1758 66.7479 35.0768 66.7479C32.7929 66.7479 30.7526 68.1113 29.8784 70.2213C28.6916 73.0868 30.0572 76.3838 32.9227 77.5708C33.6102 77.8555 34.3339 77.9999 35.0738 77.9999C37.3577 77.9999 39.3981 76.6365 40.2722 74.5265C41.2075 72.2683 40.5568 69.7429 38.8368 68.1926L39.3433 66.9698L40.7848 63.4897C42.4379 63.9834 44.1882 64.25 45.9997 64.25C47.8112 64.25 49.5614 63.9834 51.2145 63.4897L52.656 66.9698L53.1625 68.1926C51.4425 69.7429 50.7918 72.2683 51.7272 74.5266C52.6012 76.6365 54.6416 78 56.9254 78C57.6653 78 58.389 77.8556 59.0765 77.5708C61.9419 76.3838 63.3076 73.0869 62.1206 70.2213C61.2466 68.1114 59.2061 66.7479 56.9224 66.7479C56.8234 66.7479 56.7248 66.7509 56.6264 66.756L56.1186 65.5303L54.6776 62.0513C57.7911 60.3612 60.3608 57.7917 62.0508 54.6782L65.5298 56.1192L66.7569 56.6274C66.6369 58.9398 67.9624 61.1857 70.2206 62.1212C70.9081 62.4059 71.6319 62.5503 72.3717 62.5503C74.6556 62.5503 76.696 61.1869 77.5701 59.0769C78.7574 56.2113 77.3919 52.9143 74.5262 51.7273ZM45.9999 60.4998C38.0047 60.4998 31.4999 53.995 31.4999 45.9998C31.4999 38.0046 38.0047 31.4998 45.9999 31.4998C53.9952 31.4998 60.4999 38.0046 60.4999 45.9998C60.4999 53.995 53.995 60.4998 45.9999 60.4998Z" fill="black"/>
<path d="M74.5262 51.7273C73.8387 51.4426 73.115 51.2982 72.3751 51.2982C70.7434 51.2982 69.2361 51.9946 68.1895 53.1615L66.9695 52.6562L63.4894 51.2147C63.9833 49.5616 64.2498 47.8113 64.2498 45.9998C64.2498 44.1883 63.9831 42.4381 63.4894 40.7849L66.9695 39.3435L68.1895 38.8381C69.2361 40.0051 70.7434 40.7014 72.3751 40.7014C73.115 40.7014 73.8387 40.5571 74.5262 40.2722C77.3916 39.0852 78.7574 35.7883 77.5704 32.9227C76.6964 30.8128 74.6559 29.4493 72.3721 29.4493C71.6322 29.4493 70.9085 29.5937 70.221 29.8786C67.9627 30.814 66.6372 33.0598 66.7572 35.3722L65.5301 35.8805L62.0511 37.3215C60.361 34.208 57.7915 31.6383 54.678 29.9483L56.119 26.4694L56.6268 25.2436C56.7251 25.2487 56.8238 25.2517 56.9228 25.2517C59.2066 25.2517 61.247 23.8884 62.1211 21.7784C63.308 18.9129 61.9424 15.6159 59.0769 14.4289C58.3893 14.1444 57.6656 14 56.9258 14C54.6419 14 52.6015 15.3634 51.7274 17.4734C50.792 19.7316 51.4428 22.257 53.1628 23.8072L52.6563 25.0301L51.2148 28.5102C49.5617 28.0165 47.8114 27.7498 45.9999 27.7498C44.1884 27.7498 42.4382 28.0165 40.785 28.5102L39.3435 25.0301L38.8371 23.8072C40.557 22.257 41.2078 19.7316 40.2724 17.4732C39.3983 15.3634 37.3577 14 35.0739 14C34.3341 14 33.6103 14.1444 32.9228 14.4292C30.0574 15.6162 28.6917 18.9131 29.8787 21.7787C30.7527 23.8886 32.7932 25.2521 35.0769 25.2521C35.1759 25.2521 35.2746 25.2491 35.3729 25.244L35.8807 26.4697L37.3217 29.9487C34.2082 31.6388 31.6386 34.2083 29.9486 37.3218L26.4696 35.8808L25.2425 35.3726C25.3625 33.0602 24.037 30.8143 21.7787 29.8788C21.0912 29.5941 20.3675 29.4497 19.6276 29.4497C17.3437 29.4497 15.3033 30.8131 14.4292 32.9231C13.2423 35.7886 14.608 39.0856 17.4735 40.2726C18.161 40.5573 18.8847 40.7017 19.6246 40.7017C21.2563 40.7017 22.7636 40.0053 23.8102 38.8383L25.0302 39.3437L28.5103 40.7852C28.0164 42.4383 27.7499 44.1886 27.7499 46.0001C27.7499 47.8116 28.0166 49.5618 28.5103 51.2149L25.0301 52.6562L23.8101 53.1615C22.7635 51.9946 21.2562 51.2982 19.6245 51.2982C18.8846 51.2982 18.1608 51.4426 17.4733 51.7274C14.608 52.9144 13.2422 56.2113 14.4292 59.0769C15.3032 61.1868 17.3437 62.5503 19.6275 62.5503C20.3673 62.5503 21.0911 62.4059 21.7786 62.121C24.0368 61.1857 25.3623 58.9398 25.2423 56.6274L26.4694 56.1192L29.9484 54.6782C31.6386 57.7917 34.2081 60.3613 37.3216 62.0513L35.8806 65.5303L35.3728 66.756C35.2744 66.7509 35.1758 66.7479 35.0768 66.7479C32.7929 66.7479 30.7526 68.1113 29.8784 70.2213C28.6916 73.0868 30.0572 76.3838 32.9227 77.5708C33.6102 77.8555 34.3339 77.9999 35.0738 77.9999C37.3577 77.9999 39.3981 76.6365 40.2722 74.5265C41.2075 72.2683 40.5568 69.7429 38.8368 68.1926L39.3433 66.9698L40.7848 63.4897C42.4379 63.9834 44.1882 64.25 45.9997 64.25C47.8112 64.25 49.5614 63.9834 51.2145 63.4897L52.656 66.9698L53.1625 68.1926C51.4425 69.7429 50.7918 72.2683 51.7272 74.5266C52.6012 76.6365 54.6416 78 56.9254 78C57.6653 78 58.389 77.8556 59.0765 77.5708C61.9419 76.3838 63.3076 73.0869 62.1206 70.2213C61.2466 68.1114 59.2061 66.7479 56.9224 66.7479C56.8234 66.7479 56.7248 66.7509 56.6264 66.756L56.1186 65.5303L54.6776 62.0513C57.7911 60.3612 60.3608 57.7917 62.0508 54.6782L65.5298 56.1192L66.7569 56.6274C66.6369 58.9398 67.9624 61.1857 70.2206 62.1212C70.9081 62.4059 71.6319 62.5503 72.3717 62.5503C74.6556 62.5503 76.696 61.1869 77.5701 59.0769C78.7574 56.2113 77.3919 52.9143 74.5262 51.7273ZM45.9999 60.4998C38.0047 60.4998 31.4999 53.995 31.4999 45.9998C31.4999 38.0046 38.0047 31.4998 45.9999 31.4998C53.9952 31.4998 60.4999 38.0046 60.4999 45.9998C60.4999 53.995 53.995 60.4998 45.9999 60.4998Z" fill="url(#paint0_linear_22728_12626)"/>
<path d="M46 35.25C40.0725 35.25 35.25 40.0725 35.25 46C35.25 51.9275 40.0725 56.75 46 56.75C51.9275 56.75 56.75 51.9275 56.75 46C56.75 40.0725 51.9275 35.25 46 35.25ZM47.875 50.125H44.125V41.875H47.875V50.125Z" fill="black"/>
<path d="M46 35.25C40.0725 35.25 35.25 40.0725 35.25 46C35.25 51.9275 40.0725 56.75 46 56.75C51.9275 56.75 56.75 51.9275 56.75 46C56.75 40.0725 51.9275 35.25 46 35.25ZM47.875 50.125H44.125V41.875H47.875V50.125Z" fill="url(#paint1_linear_22728_12626)"/>
</g>
<defs>
<linearGradient id="paint0_linear_22728_12626" x1="45.9998" y1="14" x2="45.9998" y2="78" gradientUnits="userSpaceOnUse">
<stop stop-color="#EF8080"/>
<stop offset="1" stop-color="#F0145A"/>
</linearGradient>
<linearGradient id="paint1_linear_22728_12626" x1="46" y1="35.25" x2="46" y2="56.75" gradientUnits="userSpaceOnUse">
<stop stop-color="#EF8080"/>
<stop offset="1" stop-color="#F0145A"/>
</linearGradient>
<clipPath id="clip0_22728_12626">
<rect width="64" height="64" fill="white" transform="translate(14 14)"/>
</clipPath>
</defs>
</svg>

<svg xmlns="http://www.w3.org/2000/svg" width="92" height="92" fill="none"><rect width="92" height="92" fill="#fff" rx="24"/><g clip-path="url(#a)"><path fill="#000" d="M74.526 51.727a5.595 5.595 0 0 0-2.15-.429 5.61 5.61 0 0 0-4.187 1.863l-1.22-.505-3.48-1.441A18.19 18.19 0 0 0 64.25 46c0-1.812-.266-3.562-.76-5.215l3.48-1.441 1.22-.506a5.61 5.61 0 0 0 4.186 1.863 5.632 5.632 0 0 0 5.195-7.779 5.61 5.61 0 0 0-5.198-3.473 5.634 5.634 0 0 0-5.615 5.923l-1.227.508-3.479 1.441a18.381 18.381 0 0 0-7.373-7.373l1.441-3.479.508-1.225a5.61 5.61 0 0 0 5.494-3.465A5.632 5.632 0 0 0 56.926 14a5.61 5.61 0 0 0-5.199 3.473 5.634 5.634 0 0 0 1.436 6.334l-.507 1.223-1.441 3.48A18.196 18.196 0 0 0 46 27.75c-1.812 0-3.562.267-5.215.76l-1.441-3.48-.507-1.223a5.634 5.634 0 0 0 1.435-6.334A5.61 5.61 0 0 0 35.074 14a5.631 5.631 0 0 0-5.195 7.779 5.61 5.61 0 0 0 5.494 3.465l.508 1.226 1.44 3.479a18.38 18.38 0 0 0-7.372 7.373l-3.48-1.441-1.227-.508a5.634 5.634 0 0 0-3.463-5.494 5.595 5.595 0 0 0-2.151-.43 5.61 5.61 0 0 0-5.199 3.474 5.632 5.632 0 0 0 5.196 7.779 5.61 5.61 0 0 0 4.185-1.864l1.22.506 3.48 1.441A18.19 18.19 0 0 0 27.75 46c0 1.812.267 3.562.76 5.215l-3.48 1.441-1.22.505a5.61 5.61 0 0 0-4.185-1.863 5.632 5.632 0 0 0-5.195 7.779 5.61 5.61 0 0 0 5.198 3.473c.74 0 1.463-.144 2.15-.429a5.634 5.634 0 0 0 3.464-5.494l1.227-.508 3.48-1.44a18.382 18.382 0 0 0 7.373 7.372l-1.441 3.48-.508 1.225a5.61 5.61 0 0 0-5.494 3.465A5.632 5.632 0 0 0 35.073 78a5.61 5.61 0 0 0 5.198-3.474 5.634 5.634 0 0 0-1.435-6.333l.506-1.223 1.442-3.48c1.653.493 3.403.76 5.215.76 1.811 0 3.561-.267 5.215-.76l1.441 3.48.507 1.223a5.634 5.634 0 0 0-1.436 6.334A5.61 5.61 0 0 0 56.925 78a5.631 5.631 0 0 0 5.195-7.779 5.61 5.61 0 0 0-5.494-3.465l-.507-1.226-1.441-3.479a18.381 18.381 0 0 0 7.373-7.373l3.479 1.441 1.227.508a5.634 5.634 0 0 0 3.464 5.494c.687.285 1.41.43 2.15.43a5.61 5.61 0 0 0 5.2-3.474 5.631 5.631 0 0 0-3.045-7.35ZM46 60.5c-7.995 0-14.5-6.505-14.5-14.5S38.005 31.5 46 31.5 60.5 38.005 60.5 46 53.995 60.5 46 60.5Z"/><path fill="url(#b)" d="M74.526 51.727a5.595 5.595 0 0 0-2.15-.429 5.61 5.61 0 0 0-4.187 1.863l-1.22-.505-3.48-1.441A18.19 18.19 0 0 0 64.25 46c0-1.812-.266-3.562-.76-5.215l3.48-1.441 1.22-.506a5.61 5.61 0 0 0 4.186 1.863 5.632 5.632 0 0 0 5.195-7.779 5.61 5.61 0 0 0-5.198-3.473 5.634 5.634 0 0 0-5.615 5.923l-1.227.508-3.479 1.441a18.381 18.381 0 0 0-7.373-7.373l1.441-3.479.508-1.225a5.61 5.61 0 0 0 5.494-3.465A5.632 5.632 0 0 0 56.926 14a5.61 5.61 0 0 0-5.199 3.473 5.634 5.634 0 0 0 1.436 6.334l-.507 1.223-1.441 3.48A18.196 18.196 0 0 0 46 27.75c-1.812 0-3.562.267-5.215.76l-1.441-3.48-.507-1.223a5.634 5.634 0 0 0 1.435-6.334A5.61 5.61 0 0 0 35.074 14a5.631 5.631 0 0 0-5.195 7.779 5.61 5.61 0 0 0 5.494 3.465l.508 1.226 1.44 3.479a18.38 18.38 0 0 0-7.372 7.373l-3.48-1.441-1.227-.508a5.634 5.634 0 0 0-3.463-5.494 5.595 5.595 0 0 0-2.151-.43 5.61 5.61 0 0 0-5.199 3.474 5.632 5.632 0 0 0 5.196 7.779 5.61 5.61 0 0 0 4.185-1.864l1.22.506 3.48 1.441A18.19 18.19 0 0 0 27.75 46c0 1.812.267 3.562.76 5.215l-3.48 1.441-1.22.505a5.61 5.61 0 0 0-4.185-1.863 5.632 5.632 0 0 0-5.195 7.779 5.61 5.61 0 0 0 5.198 3.473c.74 0 1.463-.144 2.15-.429a5.634 5.634 0 0 0 3.464-5.494l1.227-.508 3.48-1.44a18.382 18.382 0 0 0 7.373 7.372l-1.441 3.48-.508 1.225a5.61 5.61 0 0 0-5.494 3.465A5.632 5.632 0 0 0 35.073 78a5.61 5.61 0 0 0 5.198-3.474 5.634 5.634 0 0 0-1.435-6.333l.506-1.223 1.442-3.48c1.653.493 3.403.76 5.215.76 1.811 0 3.561-.267 5.215-.76l1.441 3.48.507 1.223a5.634 5.634 0 0 0-1.436 6.334A5.61 5.61 0 0 0 56.925 78a5.631 5.631 0 0 0 5.195-7.779 5.61 5.61 0 0 0-5.494-3.465l-.507-1.226-1.441-3.479a18.381 18.381 0 0 0 7.373-7.373l3.479 1.441 1.227.508a5.634 5.634 0 0 0 3.464 5.494c.687.285 1.41.43 2.15.43a5.61 5.61 0 0 0 5.2-3.474 5.631 5.631 0 0 0-3.045-7.35ZM46 60.5c-7.995 0-14.5-6.505-14.5-14.5S38.005 31.5 46 31.5 60.5 38.005 60.5 46 53.995 60.5 46 60.5Z"/><path fill="#000" d="M46 35.25c-5.928 0-10.75 4.822-10.75 10.75S40.072 56.75 46 56.75 56.75 51.928 56.75 46 51.928 35.25 46 35.25Zm1.875 14.875h-3.75v-8.25h3.75v8.25Z"/><path fill="url(#c)" d="M46 35.25c-5.928 0-10.75 4.822-10.75 10.75S40.072 56.75 46 56.75 56.75 51.928 56.75 46 51.928 35.25 46 35.25Zm1.875 14.875h-3.75v-8.25h3.75v8.25Z"/></g><defs><linearGradient id="b" x1="46" x2="46" y1="14" y2="78" gradientUnits="userSpaceOnUse"><stop stop-color="#EF8080"/><stop offset="1" stop-color="#F0145A"/></linearGradient><linearGradient id="c" x1="46" x2="46" y1="35.25" y2="56.75" gradientUnits="userSpaceOnUse"><stop stop-color="#EF8080"/><stop offset="1" stop-color="#F0145A"/></linearGradient><clipPath id="a"><path fill="#fff" d="M14 14h64v64H14z"/></clipPath></defs></svg>
